static/icons/home.svg

<?xml version="1.0" encoding="iso-8859-1"?>
<!-- Generator: Adobe Illustrator 19.0.0, SVG Export Plug-In . SVG Version: 6.00 Build 0)  -->
<svg version="1.1" id="Capa_1" xmlns="http://www.w3.org/2000/svg" xmlns:xlink="http://www.w3.org/1999/xlink" x="0px" y="0px"
	 viewBox="0 0 512 512" style="enable-background:new 0 0 512 512;" xml:space="preserve">
<g>
	<g>
		<path d="M503.401,228.884l-43.253-39.411V58.79c0-8.315-6.741-15.057-15.057-15.057H340.976c-8.315,0-15.057,6.741-15.057,15.057
			v8.374l-52.236-47.597c-10.083-9.189-25.288-9.188-35.367-0.001L8.598,228.885c-8.076,7.36-10.745,18.7-6.799,28.889
			c3.947,10.189,13.557,16.772,24.484,16.772h36.689v209.721c0,8.315,6.741,15.057,15.057,15.057h125.913
			c8.315,0,15.057-6.741,15.057-15.057V356.931H293v127.337c0,8.315,6.741,15.057,15.057,15.057h125.908
			c8.315,0,15.057-6.741,15.056-15.057V274.547h36.697c10.926,0,20.537-6.584,24.484-16.772
			C514.147,247.585,511.479,236.245,503.401,228.884z M433.965,244.433c-8.315,0-15.057,6.741-15.057,15.057v209.721h-95.793
			V341.874c0-8.315-6.742-15.057-15.057-15.057H203.942c-8.315,0-15.057,6.741-15.057,15.057v127.337h-95.8V259.49
			c0-8.315-6.741-15.057-15.057-15.057H36.245l219.756-200.24l74.836,68.191c4.408,4.016,10.771,5.051,16.224,2.644
			c5.454-2.41,8.973-7.812,8.973-13.774V73.847h74.002v122.276c0,4.237,1.784,8.276,4.916,11.13l40.803,37.18H433.965z"/>
	</g>
</g>
<g>
</g>
<g>
</g>
<g>
</g>
<g>
</g>
<g>
</g>
<g>
</g>
<g>
</g>
<g>
</g>
<g>
</g>
<g>
</g>
<g>
</g>
<g>
</g>
<g>
</g>
<g>
</g>
<g>
</g>
</svg>

<svg xmlns="http://www.w3.org/2000/svg" width="512" height="486.649" viewBox="0 0 512 486.649">
  <g id="home" transform="translate(0 -12.676)">
    <g id="Group_500" data-name="Group 500">
      <path id="Path_293" data-name="Path 293" d="M503.4,228.884l-43.253-39.411V58.79a15.057,15.057,0,0,0-15.057-15.057H340.976A15.057,15.057,0,0,0,325.919,58.79v8.374l-52.236-47.6a26.135,26.135,0,0,0-35.367,0L8.6,228.885a26.255,26.255,0,0,0,17.685,45.661H62.972V484.267a15.057,15.057,0,0,0,15.057,15.057H203.942A15.057,15.057,0,0,0,219,484.267V356.931h74V484.268a15.057,15.057,0,0,0,15.057,15.057H433.965a15.056,15.056,0,0,0,15.056-15.057V274.547h36.7A26.255,26.255,0,0,0,503.4,228.884Zm-69.436,15.549a15.057,15.057,0,0,0-15.057,15.057V469.211H323.115V341.874a15.058,15.058,0,0,0-15.057-15.057H203.942a15.057,15.057,0,0,0-15.057,15.057V469.211h-95.8V259.49a15.057,15.057,0,0,0-15.057-15.057H36.245L256,44.193l74.836,68.191a15.056,15.056,0,0,0,25.2-11.13V73.847h74V196.123a15.055,15.055,0,0,0,4.916,11.13l40.8,37.18h-41.79Z" fill="#35495e"/>
    </g>
  </g>
</svg>
